X:3326
L:1/4
M:3/2
K:Ddor
|: A2 d2 ^c2 d2 A2 c2 | A2 G2 F2 E6 | A2 c2 B2 A3 A B2 | c2 d3 d ^c6 | c2 c3 G _B3 A A2 | 
 A2 G2 G2 A6 | A2 B2 ^c2 d3 A F2 A2 G2 E2 D6 ::"^Lenvoy:" A2 F2 G2 E3 c _B A | A4 G2 A6 | 
 d2 c2 _B2 A3 d c2 | A2 G2 E2 D6 :|

